X:11
T:Suite complète (condensée)
M:4/4
L:1/8
R:reel
Q:1/2=90
%
% The Cameronian Reel
%
K:Dmaj
|d4 d2dB |
%
|:A2 FA DAFA|GFEF GBdB|BAFA DAFA|GBAG FDdB|
|AF (3FFF DF (3FFF|GFEF GBdB|BAFA DAFA|GBAG FDDB:|
|:Addc [d3D3] d|cdef gfed|(3cBA eA fAed|(3Bcd ef gfeg|
|faeg faeg|fedc defg|(3agf ge fdec|dBAG FDDB:|
%
% The Fermoye Lasses
%
K:Em
|: GEEE BEEF | GFGA B2BA | GEEE BEEB | AFDF AcBA |
   GEEE BEEF | GFGA B2BA | G2GF GBdB | AFDF AcBA :|
|: G2BG dGBG | GGBd efg2 | G2BG dGBG | AFDF AcBA |
   G2BG dGBG | GGBd efg2 | gage dedB | AFDF AcBA :|
%
% Rakish Paddy
%
K:Dmix
|:c4 c2 AB|cBAG Ec c2|Add^c defe| dcAG FGAB|
c4 c2 AB|cBAG EDCE|DEFG ABcA|dcAG F2 D2:|
|:eg g2 ag g2|eg g2 ed^cd|ea a2 ba a2|ea a2 egdg|
eg g2 ag g2|fed^c defg|afge fde^c|dcAG F2 D2:|
%
% Music in the Glen
%
K: Gmaj
|:G2BG EGDC|B,DGB AGAB|c2ec BcdB|cABG AGED|
GABG EGDC|B,DGB AGAB|cdef g2ge|dBAB G2|D2:|
|:B/2A/2G dG eGdG|BGdB cAAA|B/2A/2GBd edef|gdBG AGEG|
BGBd edef|g2fg afdf|g2fg egdB cABG AGEG:||

